src/icons/documents/uF16D-doc-3ds.svg

<svg xmlns="http://www.w3.org/2000/svg" viewBox="0 0 832 1024"><path d="M64,1024H768a64,64,0,0,0,64-64V258.74512L573.25488,0H64A64,64,0,0,0,0,64V960A64,64,0,0,0,64,1024ZM560,77.25488,754.74512,272H624a64,64,0,0,1-64-64ZM64,64.00024V64H496V208A128.14493,128.14493,0,0,0,624,336H768V960H64Z"/><path d="M510.3999,376H273.167L207.15088,508.033l102.8125,44.0625L222.05859,640l87.90479,87.90454-104.689,44.8667L274.41162,888H526.833L651.01025,639.64478Zm90.36572,264L408,708.03491V571.96509Zm1.97607-22.85913L412.48291,494.8313l81.53955-81.53955ZM476.686,408l-80.2666,80.2666H252.811L292.94434,408ZM354.30078,553.01245,392,566.31812V713.68188l-37.69922,13.30566L267.31348,640ZM397.063,791.7334,487.03662,856H292.5293l-38.55957-64.2666Zm16.95508-7.55176L604.04492,662.02148,509.03125,852.04834Z"/></svg>

<svg xmlns="http://www.w3.org/2000/svg" viewBox="0 0 832 1024" role="img"><path d="M64 1024h704a64 64 0 0064-64V258.745L573.255 0H64A64 64 0 000 64v896a64 64 0 0064 64zM560 77.255L754.745 272H624a64 64 0 01-64-64zM64 64h432v144a128.145 128.145 0 00128 128h144v624H64z"/><path d="M510.4 376H273.167l-66.016 132.033 102.812 44.063L222.06 640l87.904 87.905-104.689 44.866L274.412 888h252.421L651.01 639.645zm90.366 264L408 708.035v-136.07zm1.976-22.86l-190.26-122.309 81.54-81.54zM476.686 408l-80.267 80.267H252.811L292.944 408zM354.301 553.012L392 566.318v147.364l-37.7 13.306L267.314 640zm42.762 238.721L487.037 856H292.529l-38.56-64.267zm16.955-7.551l190.027-122.16-95.014 190.026z"/></svg>
